public/avatar/shoe/108.svg

<svg xmlns:xlink="http://www.w3.org/1999/xlink" height="38.3" width="36.05" xmlns="http://www.w3.org/2000/svg"><use height="16.95" transform="translate(8.8 12.05)" width="24.3" xlink:href="#a"/><defs><g id="a" fill-rule="evenodd"><path d="M8.45 4.7q.45.3.75 1.05.5 1.65-1.45 3.2Q4.5 11.6.2 13.05q-6.5 2.15-12.25.1Q-15 12.05-15 10.5l.2-.45.05.2q.6 1.9 5.05 2.4l.5.05q4.35.75 9.15-.8 4.15-1.4 7-3.8Q8.25 7 8.3 6.5l.25-1.15-.1-.65" fill="#1a171b" transform="translate(15 2.8)"/><path d="M-5.95-1.6q3.9-1.85 7.9-.8 5.35 1.3 6.5 7.1l.1.65L8.3 6.5l-.15-.45-.1-.15-.2-.75-.35-.45Q6.75 2.5 5 .6 1.85-2.65-2.35-1.5l-1.1.35-1.1-.35-1.4-.1m-8.85 11.65q-.8-3.3 3.6-7.75L-9.05.35V.8l.35.6-.55.3q-.55.35-.7.85-1.75 1.45-3.2 3.4-.95 1.15-1 3.15l-.05-.05.25 1.2.1.15q-.35.9 2.5 1.8l2.15.5-.5-.05q-4.45-.5-5.05-2.4l-.05-.2" fill="#1d1d24" transform="translate(15 2.8)"/><path d="m-9.95 2.55-.05.75.35.6-.3.2q-.95.75-1.15 1.85l.25.85q-.5 1.15-.7 3.4l-2.6-1.1q.05-2 1-3.15 1.45-1.95 3.2-3.4m1.3 4.75q1.35-.2 2.8-1.3l.6-.7q1.8.4 3.3-.8l.65-.75h.05l1.85.1.9.95q1.55 1.9 1.85 3.95-5.4 3.05-12.15 1.95-.45-1.75.15-3.4m11-4.4q.55-.6.4-1.2-.1-.7-.8-1.1Q.8 0 .25.05l-1.5-.65-1.85-.25-.35-.3 1.1-.35Q1.85-2.65 5 .6q1.75 1.9 2.5 4.1l-.4-.2q.7 1.45-1.7 2.9-.8-2.65-2.95-4.45l-.1-.05" fill="#795144" transform="translate(15 2.8)"/><path d="m-10.85 6.8.45.35q-.4 1-.55 3.1l-.1 1.15q-2.05-.35-2.8-1.05v.05l-.1-.15-.25-1.2.05.05 2.6 1.1q.2-2.25.7-3.4m1.5.55.7-.05q-.6 1.65-.15 3.4 6.75 1.1 12.15-1.95Q3.05 6.7 1.5 4.8l-.9-.95.7-.25q2.65 2.3 3.05 5.1l.05.35-.35.2q-7.05 4.3-14.2 2.45-.3-1.9.8-4.35M1.9 3.25l.15-.1.3-.25.1.05Q4.6 4.75 5.4 7.4q2.4-1.45 1.7-2.9l.4.2.35.45.2.75-.25-.35Q7.55 7.2 5.15 8.4l-.35-.85Q4 4.9 1.9 3.25" fill="#402820" transform="translate(15 2.8)"/><path d="m-10.4 7.15.4.1.65.1q-1.1 2.45-.8 4.35Q-3 13.55 4.05 9.25l.35-.2-.05-.35q-.4-2.8-3.05-5.1l.6-.35Q4 4.9 4.8 7.55l.35.85q2.4-1.2 2.65-2.85l.25.35.1.15.15.45q-.05.5-1.35 1.6-2.85 2.4-7 3.8-4.8 1.55-9.15.8l-2.15-.5q-2.85-.9-2.5-1.8v-.05q.75.7 2.8 1.05l.1-1.15q.15-2.1.55-3.1" fill="#ffb324" transform="translate(15 2.8)"/><path d="M-9.05.35q.05-.6.8-1.05 1.1-.8 2.3-.9l1.4.1 1.1.35.35.3 1.85.25 1.5.65Q.8 0 1.95.6q.7.4.8 1.1.15.6-.4 1.2l-.3.25-.15.1-.6.35-.7.25-1.85-.1h-.05l-.65.75q-1.5 1.2-3.3.8l-.6.7q-1.45 1.1-2.8 1.3l-.7.05-.65-.1-.4-.1-.45-.35-.25-.85q.2-1.1 1.15-1.85l.3-.2-.35-.6.05-.75q.15-.5.7-.85l.55-.3-.35-.6V.35m4-1.05q-1.3-.3-2.5.55-1 .75.6 1.1h.9q1.5.85 2.05.9l2.75.45.8.6q1 .35 1.9-.35 1-.8-.1-1.2l-1.3-.1Q-.9.4-1.75.2l-2.7-.45q0-.4-.6-.45m1.95 3.55-1.4-.3-1.8-.7q-1.3-.3-2.2.4-1.15.95.1 1.25l1.95.25 1.4.65q1.15.4 2.4-.5.85-.65-.45-1.05m-3.8 3.1q1.3-1.15-.15-1.55-1.6-.4-2.95.7-1.35 1.15.1 1.55 1.55.45 3-.7" fill="#36221b" transform="translate(15 2.8)"/><path d="M-6.9 5.95q-1.45 1.15-3 .7-1.45-.4-.1-1.55 1.35-1.1 2.95-.7 1.45.4.15 1.55" fill="#fc2623" transform="translate(15 2.8)"/><path d="M-3.1 2.85q1.3.4.45 1.05-1.25.9-2.4.5l-1.4-.65-1.95-.25q-1.25-.3-.1-1.25.9-.7 2.2-.4l1.8.7 1.4.3" fill="#f7ef00" transform="translate(15 2.8)"/><path d="M-5.05-.7q.6.05.6.45l2.7.45Q-.9.4.05 1.25l1.3.1q1.1.4.1 1.2-.9.7-1.9.35l-.8-.6L-4 1.85q-.55-.05-2.05-.9h-.9q-1.6-.35-.6-1.1 1.2-.85 2.5-.55" fill="#12ff00" transform="translate(15 2.8)"/></g></defs></svg>

<?xml version="1.0" encoding="UTF-8" standalone="no"?>
<svg xmlns:xlink="http://www.w3.org/1999/xlink" height="38.3px" width="36.05px" xmlns="http://www.w3.org/2000/svg">
  <g transform="matrix(1.0, 0.0, 0.0, 1.0, 23.8, 14.85)">
    <use height="16.95" transform="matrix(1.0, 0.0, 0.0, 1.0, -15.0, -2.8)" width="24.3" xlink:href="#shape0"/>
  </g>
  <defs>
    <g id="shape0" transform="matrix(1.0, 0.0, 0.0, 1.0, 15.0, 2.8)">
      <path d="M8.45 4.7 Q8.9 5.0 9.2 5.75 9.7 7.4 7.75 8.95 4.5 11.6 0.2 13.05 -6.3 15.2 -12.05 13.15 -15.0 12.05 -15.0 10.5 L-14.8 10.05 -14.75 10.25 Q-14.15 12.15 -9.7 12.65 L-9.2 12.7 Q-4.85 13.45 -0.05 11.9 4.1 10.5 6.95 8.1 8.25 7.0 8.3 6.5 L8.55 5.35 8.45 4.7" fill="#1a171b" fill-rule="evenodd" stroke="none"/>
      <path d="M-5.95 -1.6 Q-2.05 -3.45 1.95 -2.4 7.3 -1.1 8.45 4.7 L8.55 5.35 8.3 6.5 8.15 6.05 8.05 5.9 7.85 5.15 7.5 4.7 Q6.75 2.5 5.0 0.6 1.85 -2.65 -2.35 -1.5 L-3.45 -1.15 -4.55 -1.5 -5.95 -1.6 M-14.8 10.05 Q-15.6 6.75 -11.2 2.3 L-9.05 0.35 -9.05 0.8 -8.7 1.4 -9.25 1.7 Q-9.8 2.05 -9.95 2.55 -11.7 4.0 -13.15 5.95 -14.1 7.1 -14.15 9.1 L-14.2 9.05 -13.95 10.25 -13.85 10.4 Q-14.2 11.3 -11.35 12.2 L-9.2 12.7 -9.7 12.65 Q-14.15 12.15 -14.75 10.25 L-14.8 10.05" fill="#1d1d24" fill-rule="evenodd" stroke="none"/>
      <path d="M-9.95 2.55 L-10.0 3.3 -9.65 3.9 -9.95 4.1 Q-10.9 4.85 -11.1 5.95 L-10.85 6.8 Q-11.35 7.95 -11.55 10.2 L-14.15 9.1 Q-14.1 7.1 -13.15 5.95 -11.7 4.0 -9.95 2.55 M-8.65 7.3 Q-7.3 7.1 -5.85 6.0 L-5.25 5.3 Q-3.45 5.7 -1.95 4.5 L-1.3 3.75 -1.25 3.75 0.6 3.85 1.5 4.8 Q3.05 6.7 3.35 8.75 -2.05 11.8 -8.8 10.7 -9.25 8.95 -8.65 7.3 M2.35 2.9 Q2.9 2.3 2.75 1.7 2.65 1.0 1.95 0.6 0.8 0.0 0.25 0.05 L-1.25 -0.6 -3.1 -0.85 -3.45 -1.15 -2.35 -1.5 Q1.85 -2.65 5.0 0.6 6.75 2.5 7.5 4.7 L7.1 4.5 Q7.8 5.95 5.4 7.4 4.6 4.75 2.45 2.95 L2.35 2.9" fill="#795144" fill-rule="evenodd" stroke="none"/>
      <path d="M-10.85 6.8 L-10.4 7.15 Q-10.8 8.15 -10.95 10.25 L-11.05 11.4 Q-13.1 11.05 -13.85 10.35 L-13.85 10.4 -13.95 10.25 -14.2 9.05 -14.15 9.1 -11.55 10.2 Q-11.35 7.95 -10.85 6.8 M-9.35 7.35 L-8.65 7.3 Q-9.25 8.95 -8.8 10.7 -2.05 11.8 3.35 8.75 3.05 6.7 1.5 4.8 L0.6 3.85 1.3 3.6 Q3.95 5.9 4.35 8.7 L4.4 9.05 4.05 9.25 Q-3.0 13.55 -10.15 11.7 -10.45 9.8 -9.35 7.35 M1.9 3.25 L2.05 3.15 2.35 2.9 2.45 2.95 Q4.6 4.75 5.4 7.4 7.8 5.95 7.1 4.5 L7.5 4.7 7.85 5.15 8.05 5.9 7.8 5.55 Q7.55 7.2 5.15 8.4 L4.8 7.55 Q4.0 4.9 1.9 3.25" fill="#402820" fill-rule="evenodd" stroke="none"/>
      <path d="M-10.4 7.15 L-10.0 7.25 -9.35 7.35 Q-10.45 9.8 -10.15 11.7 -3.0 13.55 4.05 9.25 L4.4 9.05 4.35 8.7 Q3.95 5.9 1.3 3.6 L1.9 3.25 Q4.0 4.9 4.8 7.55 L5.15 8.4 Q7.55 7.2 7.8 5.55 L8.05 5.9 8.15 6.05 8.3 6.5 Q8.25 7.0 6.95 8.1 4.1 10.5 -0.05 11.9 -4.85 13.45 -9.2 12.7 L-11.35 12.2 Q-14.2 11.3 -13.85 10.4 L-13.85 10.35 Q-13.1 11.05 -11.05 11.4 L-10.95 10.25 Q-10.8 8.15 -10.4 7.15" fill="#ffb324" fill-rule="evenodd" stroke="none"/>
      <path d="M-9.05 0.35 Q-9.0 -0.25 -8.25 -0.7 -7.15 -1.5 -5.95 -1.6 L-4.55 -1.5 -3.45 -1.15 -3.1 -0.85 -1.25 -0.6 0.25 0.05 Q0.8 0.0 1.95 0.6 2.65 1.0 2.75 1.7 2.9 2.3 2.35 2.9 L2.05 3.15 1.9 3.25 1.3 3.6 0.6 3.85 -1.25 3.75 -1.3 3.75 -1.95 4.5 Q-3.45 5.7 -5.25 5.3 L-5.85 6.0 Q-7.3 7.1 -8.65 7.3 L-9.35 7.35 -10.0 7.25 -10.4 7.15 -10.85 6.8 -11.1 5.95 Q-10.9 4.85 -9.95 4.1 L-9.65 3.9 -10.0 3.3 -9.95 2.55 Q-9.8 2.05 -9.25 1.7 L-8.7 1.4 -9.05 0.8 -9.05 0.35 M-5.05 -0.7 Q-6.35 -1.0 -7.55 -0.15 -8.55 0.6 -6.95 0.95 L-6.05 0.95 Q-4.55 1.8 -4.0 1.85 L-1.25 2.3 -0.45 2.9 Q0.55 3.25 1.45 2.55 2.45 1.75 1.35 1.35 L0.05 1.25 Q-0.9 0.4 -1.75 0.2 L-4.45 -0.25 Q-4.45 -0.65 -5.05 -0.7 M-3.1 2.85 L-4.5 2.55 -6.3 1.85 Q-7.6 1.55 -8.5 2.25 -9.65 3.2 -8.4 3.5 L-6.45 3.75 -5.05 4.4 Q-3.9 4.8 -2.65 3.9 -1.8 3.25 -3.1 2.85 M-6.9 5.95 Q-5.6 4.8 -7.05 4.4 -8.65 4.0 -10.0 5.1 -11.35 6.25 -9.9 6.65 -8.35 7.1 -6.9 5.95" fill="#36221b" fill-rule="evenodd" stroke="none"/>
      <path d="M-6.9 5.95 Q-8.35 7.1 -9.9 6.65 -11.35 6.25 -10.0 5.1 -8.65 4.0 -7.05 4.4 -5.6 4.8 -6.9 5.95" fill="#fc2623" fill-rule="evenodd" stroke="none"/>
      <path d="M-3.1 2.85 Q-1.8 3.25 -2.65 3.9 -3.9 4.8 -5.05 4.4 L-6.45 3.75 -8.4 3.5 Q-9.65 3.2 -8.5 2.25 -7.6 1.55 -6.3 1.85 L-4.5 2.55 -3.1 2.85" fill="#f7ef00" fill-rule="evenodd" stroke="none"/>
      <path d="M-5.05 -0.7 Q-4.45 -0.65 -4.45 -0.25 L-1.75 0.2 Q-0.9 0.4 0.05 1.25 L1.35 1.35 Q2.45 1.75 1.45 2.55 0.55 3.25 -0.45 2.9 L-1.25 2.3 -4.0 1.85 Q-4.55 1.8 -6.05 0.95 L-6.95 0.95 Q-8.55 0.6 -7.55 -0.15 -6.35 -1.0 -5.05 -0.7" fill="#12ff00" fill-rule="evenodd" stroke="none"/>
    </g>
  </defs>
</svg>
